X: 9890
T: Derry, The
R: reel
M: 4/4
K: Amajor
~c3B AecA|BEcB AFEF|ABce aAgA|faec BEAB|~c3B AecA|
BEcB AFEF|1 ABce afec|(3B=cB GB A^de=d:|2 ABce fece|fAgA ~a2ga||
|:~f2af cfaf|geBe gbag|f2af cfaf|gfeg fbag|aece AecA|
BEcB AFEF|1 ABce fece|fAgA ~a2ga:|2 ABce afec|(3B=cB GB A^de=d||

